X: 3
T: No Frontiers
C: J. McCarthy
O: from Mary Black CD
M: 2/4
K: C
L: 1/8
"Dm7"z g gg/g/|"Em"gg3 |"F"zg/g/ gf/e/|"G(+9)"f3z|
w:If life is a ri-ver and your heart is a boat
"C"z e ee/e/|"Am"e/e/e/e/ fe|"Dm7"z d2 c|"G"B3z|
w:And just like a wa-ter ba-by ba-by born to float
"Dm7"zg/g/ gg/g/|"Em"gg2g|"F"g2af|"G(+9)"e-d3|
w:And if life is a wild wind that blows way on high_
"C"ze/e/ ee/e/|"Am"e e3|"Dm7"d2AA|"G"B3z|
w:And your heart is A-me-lia dy-ing to fly
"F"zf2 e|"G"d3z|"Em7b5"zg2 f|"A7"e3z|
w:Hea-ven knows no fron-tiers
"Dm7"z>f fe|"G"dc ee|"F(add9)"c4-|c2z2|
w:and I've seen hea-ven in your eyes._
